X: 3296
T: Tretop
B:[[Notböcker/Melodier til gamle danske Almuedanse for Violin solo]]
O:Danmark
Z:Søren Bak Vestergaard
M: 2/4
L: 1/8
K: G
GGGG|GA/B/ c2|BGGG|GDB,D|GGGG|\
GA/B/ c2|BGAF|G2 G2:| |:gddg|ecce|dBGB|\
cAFD|dddd|de/f/ g2|fde^c|d2 d2:| |:g2 g2|\
bgaf|g2 g2|gdBG|ABcB|AGFD|ABcA|G2 G2:|
(:musicend:)
(:music:)
